assets/images/img_nav_blue_gray_200_20x20.svg

<svg width="20" height="20" viewBox="0 0 20 20" fill="none" xmlns="http://www.w3.org/2000/svg">
<path fill-rule="evenodd" clip-rule="evenodd" d="M5.36594 1.66406H14.6326C16.7435 1.73651 18.3981 3.5029 18.3326 5.61406V11.0474C18.364 12.067 17.9877 13.0571 17.287 13.7984C16.5863 14.5398 15.619 14.9713 14.5993 14.9974H6.66594C6.11693 15.0087 5.59629 15.2435 5.22428 15.6474L3.24928 17.7557C3.08195 17.9382 2.84684 18.0437 2.59928 18.0474C2.34359 18.0409 2.10112 17.9324 1.92583 17.7462C1.75053 17.5599 1.65696 17.3113 1.66594 17.0557V5.61406C1.60042 3.5029 3.255 1.73651 5.36594 1.66406ZM14.6326 13.7474C16.0534 13.6755 17.1487 12.4685 17.0826 11.0474V5.61406C17.1487 4.193 16.0534 2.98595 14.6326 2.91406H5.36594C3.94516 2.98595 2.84988 4.193 2.91594 5.61406V16.2807L4.27427 14.7974C4.89546 14.1366 5.75907 13.7575 6.66594 13.7474H14.6326Z" fill="#B0B3BC"/>
<path d="M6.87427 7.28906H11.0409C11.3861 7.28906 11.6659 7.00924 11.6659 6.66406C11.6659 6.31888 11.3861 6.03906 11.0409 6.03906H6.87427C6.5291 6.03906 6.24927 6.31888 6.24927 6.66406C6.24927 7.00924 6.5291 7.28906 6.87427 7.28906Z" fill="#B0B3BC"/>
<path d="M13.1243 9.3724H6.87427C6.5291 9.3724 6.24927 9.65222 6.24927 9.9974C6.24927 10.3426 6.5291 10.6224 6.87427 10.6224H13.1243C13.4695 10.6224 13.7493 10.3426 13.7493 9.9974C13.7493 9.65222 13.4695 9.3724 13.1243 9.3724Z" fill="#B0B3BC"/>
</svg>

<svg xmlns="http://www.w3.org/2000/svg" width="20" height="20" fill="none" viewBox="0 0 20 20"><path fill="#B0B3BC" fill-rule="evenodd" d="M5.366 1.664h9.267a3.833 3.833 0 0 1 3.7 3.95v5.433a3.833 3.833 0 0 1-3.734 3.95H6.666a2.016 2.016 0 0 0-1.442.65L3.25 17.756a.9.9 0 0 1-.65.291.958.958 0 0 1-.933-.991V5.614a3.833 3.833 0 0 1 3.7-3.95Zm9.267 12.083a2.583 2.583 0 0 0 2.45-2.7V5.614a2.583 2.583 0 0 0-2.45-2.7H5.366a2.583 2.583 0 0 0-2.45 2.7v10.667l1.358-1.484a3.333 3.333 0 0 1 2.392-1.05h7.967Z" clip-rule="evenodd"/><path fill="#B0B3BC" d="M6.874 7.29h4.167a.625.625 0 1 0 0-1.25H6.874a.625.625 0 0 0 0 1.25Zm6.25 2.082h-6.25a.625.625 0 0 0 0 1.25h6.25a.625.625 0 1 0 0-1.25Z"/></svg>
